src/renderer/assets/icon/plus-active-icon.svg

<?xml version="1.0" encoding="UTF-8"?>
<svg viewBox="0 0 12 12" version="1.1" xmlns="http://www.w3.org/2000/svg" xmlns:xlink="http://www.w3.org/1999/xlink">
    <defs>
        <radialGradient cx="84.2036702%" cy="81.3988863%" fx="84.2036702%" fy="81.3988863%" r="114.30679%" id="radialGradient-1">
            <stop stop-color="#FFFFFF" stop-opacity="0.85" offset="0%"></stop>
            <stop stop-color="#FFFFFF" stop-opacity="0.7" offset="100%"></stop>
        </radialGradient>
    </defs>
    <g id="Playing-View-Icon-/-Plus" stroke="none" stroke-width="1" fill="none" fill-rule="evenodd" opacity="0.2">
        <path d="M6.82937446,5.16360928 L10.3293745,5.16360928 C10.4674456,5.16360928 10.5793745,5.27553809 10.5793745,5.41360928 L10.5793745,6.61360928 C10.5793745,6.75168047 10.4674456,6.86360928 10.3293745,6.86360928 L6.82937446,6.86360928 L6.82937446,10.3636093 C6.82937446,10.5016805 6.71744565,10.6136093 6.57937446,10.6136093 L5.37937446,10.6136093 C5.24130327,10.6136093 5.12937446,10.5016805 5.12937446,10.3636093 L5.12937446,6.86360928 L1.62937446,6.86360928 C1.49130327,6.86360928 1.37937446,6.75168047 1.37937446,6.61360928 L1.37937446,5.41360928 C1.37937446,5.27553809 1.49130327,5.16360928 1.62937446,5.16360928 L5.12937446,5.16360928 L5.12937446,1.66360928 C5.12937446,1.52553809 5.24130327,1.41360928 5.37937446,1.41360928 L6.57937446,1.41360928 C6.71744565,1.41360928 6.82937446,1.52553809 6.82937446,1.66360928 L6.82937446,5.16360928 Z" id="Icon---Add" fill="url(#radialGradient-1)"></path>
    </g>
</svg>

<svg viewBox="0 0 12 12" xmlns="http://www.w3.org/2000/svg">
    <defs>
        <radialGradient cx="84.204%" cy="81.399%" fx="84.204%" fy="81.399%" r="114.307%" id="a">
            <stop stop-color="#FFF" stop-opacity=".85" offset="0%"/>
            <stop stop-color="#FFF" stop-opacity=".7" offset="100%"/>
        </radialGradient>
    </defs>
    <path d="M6.83 5.164h3.5a.25.25 0 01.25.25v1.2a.25.25 0 01-.25.25h-3.5v3.5a.25.25 0 01-.25.25h-1.2a.25.25 0 01-.25-.25v-3.5h-3.5a.25.25 0 01-.25-.25v-1.2a.25.25 0 01.25-.25h3.5v-3.5a.25.25 0 01.25-.25h1.2a.25.25 0 01.25.25v3.5z" fill="url(#a)" fill-rule="evenodd" opacity=".2"/>
</svg>
